X:1
T:Down By the Soputhern Jersey Shore
M:3/4
L:1/8
K:C
 GGF| E3 CE G| c4 GG| A3 AA c| d4 dc| B3| gdg| B3 BB d| e6-| e3 GG F|\
 E3 CE G| c4| GG| A3 AA c| d4 dc| B3 gd f| B3 BB d| c6-| d4 z2| cB|\
 A3 AA c| f4 cA| G3 GG c| e4 ed| c3 cB c| d2 B2 dc| B6-| B3 GG F| E3|\
 CEG| c4 GG| A3 AA c| d4 dc| B3 gd f| B3| Bcd| c6-| c4||
